X:1
T:D Major Oliver Holden, 1800
T:Isaac Watts, 1719 (Psalm 119, Part 18) 88. 88. (L. M.)
T:St. Mary No copyright. Transcribed from Plain Psalmody, 1800.
%%score [ 1 2 3 4 ]
L:1/8
M:3/4
K:D
V:1 treble nm="Treble" snm="Tr."
V:2 treble nm="Counter" snm="C."
V:3 treble-8 nm="Tenor" snm="T."
V:4 bass nm="Bass" snm="B."
V:1
 d2 d2 d2 | (c>B A2) c2 | d4 A2 | A4 c2 | (d2 c2) d2 | (d2 A2) GB | A4 G2 | F4 F2 | A4 A2 | %9
 (d2 A2) d2 | (B2 e2) d2 | c4 d2 | (d2 e2) f2 | A4 e2 | d4 c2 | d6 |] %16
V:2
 F2 F2 A2 | (E2 D2) E2 | F4 E2 | E4 E2 | (D2 E2) D2 | (F2 A2) G2 | F4 E2 | F4 D2 | (D2 C2) E2 | %9
w: 1.~Fath- er, I|bless * Thy|gen- tle|hand; How|kind * was|Thy * chas-|ten- ing|rod! That|forced * my|
 F4 F2 | G4 E2 | E4 F2 | (F2 E2) A2 | F4 E2 | D4 E2 | F6 |] %16
w: con- science|to a|stand, and|brought * my|wander- ing|soul to|God.|
V:3
 A>B A2 G2 | (G2 F2) G2 | (A2 BA) GF | (F2 E2) EF | (G2 A2) BG | (A2 d2) BG | F4 E2 | D4 A2 | %8
 (d2 e2) c2 | (B2 d2) F2 | (GABA) ^G2 | A4 FA | (dABG) FA | d4 BA/G/ | F4 E2 | D6 |] %16
V:4
 D,2 D,2 D,2 | A,,4 A,,2 | D,4 C,D, | A,,4 A,,2 | A,,4 D,2 | D,4 G,,2 | A,,4 A,,2 | D,4 F,2 | %8
 (F,2 E,2) E,2 | D,4 D,2 | E,4 E,2 | [A,,A,]4 D,2 | (F,2 E,2) D,2 | F,4 G,2 | A,4 A,,2 | D,6 |] %16

